src/components/site/Header/asset/close.svg

<svg width="13" height="13" viewBox="0 0 13 13" fill="none" xmlns="http://www.w3.org/2000/svg">
<path d="M0.706956 12.0209C0.316431 11.6304 0.316431 10.9972 0.706956 10.6067L10.6064 0.7072C10.997 0.316675 11.6301 0.316676 12.0207 0.7072C12.4112 1.09772 12.4112 1.73089 12.0207 2.12141L2.12117 12.0209C1.73064 12.4114 1.09748 12.4114 0.706956 12.0209Z" fill="white"/>
<path d="M1.07009 1.0712C1.46061 0.680679 2.09378 0.680679 2.4843 1.0712L12.3838 10.9707C12.7743 11.3612 12.7743 11.9944 12.3838 12.3849C11.9933 12.7754 11.3601 12.7754 10.9696 12.3849L1.07009 2.48542C0.679562 2.09489 0.679562 1.46173 1.07009 1.0712Z" fill="white"/>
</svg>

<svg width="13" height="13" fill="none" xmlns="http://www.w3.org/2000/svg"><path d="M.707 12.02a1 1 0 010-1.413l9.9-9.9a1 1 0 011.414 1.414l-9.9 9.9a1 1 0 01-1.414 0z" fill="#fff"/><path d="M1.07 1.071a1 1 0 011.414 0l9.9 9.9a1 1 0 01-1.414 1.414l-9.9-9.9a1 1 0 010-1.414z" fill="#fff"/></svg>
